icons/contacts-book-fill.svg

<svg viewBox="0 0 24 24" fill="currentColor" xmlns="http://www.w3.org/2000/svg">
    <path d="M7 2V22H3V2H7ZM9 2H19.0049C20.1068 2 21 2.89821 21 3.9908V20.0092C21 21.1087 20.1074 22 19.0049 22H9V2ZM22 6H24V10H22V6ZM22 12H24V16H22V12ZM15 12C16.1046 12 17 11.1046 17 10C17 8.89543 16.1046 8 15 8C13.8954 8 13 8.89543 13 10C13 11.1046 13.8954 12 15 12ZM12 16H18C18 14.3431 16.6569 13 15 13C13.3431 13 12 14.3431 12 16Z"/>
</svg>

<svg xmlns="http://www.w3.org/2000/svg" viewBox="0 0 24 24">
    <g>
        <path fill="none" d="M0 0h24v24H0z"/>
        <path d="M7 2v20H3V2h4zm2 0h10.005C20.107 2 21 2.898 21 3.99v16.02c0 1.099-.893 1.99-1.995 1.99H9V2zm13 4h2v4h-2V6zm0 6h2v4h-2v-4zm-7 0a2 2 0 1 0 0-4 2 2 0 0 0 0 4zm-3 4h6a3 3 0 0 0-6 0z"/>
    </g>
</svg>
